X:16
T: Kömíves Kelemen
O: Trunk(Bákó), 1929
Q: 1/4=84
M:4/4
L:1/4
K:G
AFDD | G(G2=F/G/) | 
AFDD | G(G2=F/G/) | 
F>G A B | (G>F) (ED) | 
F2 G| F2 E | D2 D z | 

